src/icons/outline/status/question.svg

<svg width="24" height="24" viewBox="0 0 24 24" fill="none" xmlns="http://www.w3.org/2000/svg">
<g clip-path="url(#clip0_1_2128)">
<path d="M12 16.4766C12.6124 16.4766 13.1025 16.9667 13.1025 17.5791C13.1025 18.1915 12.6124 18.6816 12 18.6816C11.3987 18.6816 10.8975 18.1916 10.8975 17.5791C10.8975 16.9666 11.3875 16.4766 12 16.4766Z" fill="#1D1B20"/>
<path d="M12 5.2959C13.9263 5.29594 15.4851 6.85499 15.4854 8.78125C15.4854 10.4182 14.3606 11.7884 12.835 12.167V14.0488C12.835 14.5054 12.4565 14.8837 12 14.8838C11.5434 14.8838 11.165 14.5054 11.165 14.0488V11.4316C11.1653 10.9753 11.5436 10.5967 12 10.5967C13.1247 10.5966 13.8154 9.64983 13.8154 8.78125C13.8152 7.65684 12.8685 6.96684 12 6.9668C10.8755 6.9668 10.1848 7.91278 10.1846 8.78125C10.1846 9.23781 9.80617 9.61718 9.34961 9.61719C8.89304 9.61719 8.51465 9.23782 8.51465 8.78125C8.51491 6.85497 10.0737 5.2959 12 5.2959Z" fill="#1D1B20"/>
<path fill-rule="evenodd" clip-rule="evenodd" d="M12 2C17.5011 2 22 6.48775 22 12C22 17.5122 17.5122 22 12 22C6.48775 22 2 17.5122 2 12C2 6.48775 6.48775 2 12 2ZM12 3.66992C7.40089 3.66992 3.66992 7.39015 3.66992 11.9893C3.67013 16.5882 7.41216 20.3184 12 20.3184V20.3301C16.5991 20.3301 20.3301 16.5991 20.3301 12C20.3301 7.40089 16.5991 3.66992 12 3.66992Z" fill="#1D1B20"/>
</g>
<defs>
<clipPath id="clip0_1_2128">
<rect width="24" height="24" fill="white"/>
</clipPath>
</defs>
</svg>

<svg xmlns="http://www.w3.org/2000/svg" width="24" height="24" fill="none" viewBox="0 0 24 24"><g fill="currentColor" clip-path="url(#a)"><path d="M12 16.477c.612 0 1.102.49 1.102 1.102s-.49 1.103-1.102 1.103c-.601 0-1.102-.49-1.102-1.103 0-.612.49-1.102 1.102-1.102m0-11.181a3.488 3.488 0 0 1 .835 6.871v1.882a.84.84 0 0 1-.835.835.84.84 0 0 1-.835-.835v-2.617c0-.457.379-.835.835-.835 1.125 0 1.815-.947 1.815-1.816 0-1.124-.947-1.814-1.815-1.814-1.124 0-1.815.946-1.815 1.814a.84.84 0 0 1-.835.836.84.84 0 0 1-.835-.836A3.484 3.484 0 0 1 12 5.296"/><path fill-rule="evenodd" d="M12 2c5.501 0 10 4.488 10 10s-4.488 10-10 10S2 17.512 2 12 6.488 2 12 2m0 1.67c-4.6 0-8.33 3.72-8.33 8.32 0 4.598 3.742 8.328 8.33 8.328v.012a8.33 8.33 0 0 0 0-16.66" clip-rule="evenodd"/></g><defs><clipPath id="a"><path fill="currentColor" d="M0 0h24v24H0z"/></clipPath></defs></svg>
